dist/res/image/youtube.svg

<svg width="28" height="23" viewBox="0 0 28 23" fill="none" xmlns="http://www.w3.org/2000/svg">
<path d="M10.9434 8.52717C10.9434 7.75538 11.7806 7.27451 12.4472 7.66339L17.985 10.8938C18.6465 11.2797 18.6465 12.2355 17.985 12.6213L12.4472 15.8517C11.7806 16.2406 10.9434 15.7597 10.9434 14.9879V8.52717Z" fill="#FB9EBC"/>
<path d="M13.7837 1.81494C26.5673 1.81494 26.5673 1.81494 26.5673 11.7578C26.5673 21.7006 26.5673 21.7006 13.7837 21.7006C1 21.7006 1 21.7006 1 11.7578C1 1.81494 1 1.81494 13.7837 1.81494Z" stroke="#FB9EBC" stroke-width="2" stroke-linecap="round" stroke-linejoin="round"/>
</svg>

<svg xmlns="http://www.w3.org/2000/svg" width="28" height="23" fill="none"><path fill="#FB9EBC" d="M10.943 8.527a1 1 0 0 1 1.504-.864l5.538 3.23a1 1 0 0 1 0 1.728l-5.538 3.23a1 1 0 0 1-1.504-.863z"/><path stroke="#FB9EBC" stroke-linecap="round" stroke-linejoin="round" stroke-width="2" d="M13.784 1.815c12.783 0 12.783 0 12.783 9.943s0 9.943-12.783 9.943C1 21.7 1 21.7 1 11.758s0-9.943 12.784-9.943"/></svg>
